X:1
T:Parlo, misero
T:Parlo, misero
T:Enrico Radesca di Foggia
T:Source : Canzonette, madrigale & arie---Libro I---Milano---Heredes S.Tini & F.Lomazzi---1606. Editor : André Vierendeels (17/03/14).
C:Enrico Radesca di Foggia
%%score [ 1 2 ] 3
L:1/8
Q:1/4=120
M:4/4
K:F
V:1 treble nm="Soprano" snm="S"
V:2 bass nm="Bass" snm="B"
V:3 bass nm="MusicXML Part"
V:1
 G8 | A4 E4- | E2 E2 ^F4 | G3 A B4 | A4 z2 d2 | c2 c2 c2 B2 | A2 A2 G2 A2 | ^F2 F2 z2 d2 | %8
w: Par-|lo, mi-|* se- r'o|tac- * *|cio? S'io|tac- cio, che soc-|coss' ha- vra'il mo-|ri- re? S'io|
 c2 c2 c2 B2 | A2 A2 G2 A2 | ^F2 F2 z4 | A8 | ^F4 z4 | A2 A2 B2 dd | ^c4 d4 | A2 A2 A2 AB | c4 d4 | %17
w: par- lo, che per-|don' ha- vra l'ar-|di- re?|Ta-|ci,|ta- ci, che ben s'in-|ten- de,|chiu fa fiam- ma tal'|hor da|
 G2 A2 A4 | G8 :: G2 A2 B2 Bc | A2 A2 z4 | G2 A2 B2 Bc | A2 A2 z2 d2 | d2 f2 _e2 e2 | d4 c4 | %25
w: chi l'ac- sen-|de:|Par- la'in me la pie-|ta- te,|par- la'in lei la bel-|ta- de, e|di- ce quel bel|vol- to'al|
 B2 c2 c4 | B8 |[M:3/2] d4 d4 d4 | c8 c4 | B4 B4 B4 | A8 z4 | G4 G4 G4 | F8 F4 | _E4 E4 E4 | %34
w: cru- do co-|re,|chi puo mi-|rar- mi,-|e non lan-|guir,-|chi puo mi-|rar- mi,|e non lan-|
 D8 z4 | d4 d4 d4 | c8 c4 | B4 B4 A4 | B2 A2 B2 c2 d4 | c4 A8 | G12 :| %41
w: guir,|chi puo mi-|rar- mi,|e non lan-|guir _ _ _ _|d'a- mo-|re?|
V:2
 G,8 | D,4 A,4- | A,2 A,2 D,4 | G,8 | D,4 z2 B,,2 | F,2 F,2 F,2 G,2 | D,2 D,2 _E,2 C,2 | %7
w: Par-|lo, mi-|* se- r'o|tac-|cio? S'io|tac- cio che soc-|coss' ha- vra'il mo-|
 D,2 D,2 z2 B,,2 | F,2 F,2 F,2 G,2 | D,2 D,2 _E,2 C,2 | D,2 D,2 z4 | A,,8 | D,4 z4 | %13
w: ri- re? S'io|par- lo che per-|don' ha- vra l'ar-|di- re?|Ta-|ci,|
 D,2 C,2 B,,2 G,,G,, | A,,4 D,4 | D,2 D,2 D,2 D,G, | F,4 B,,4 | C,2 C,2 D,4 | G,,8 :: %19
w: ta- ci che ben s'in-|ten- de,|chiu fa fiam- ma tal'|hor da|chi l'ac- cen-|de:|
 G,2 F,2 _E,2 E,C, | D,2 D,2 z4 | G,2 F,2 _E,2 E,C, | D,2 D,2 z2 B,,2 | B,2 B,2 C2 C2 | B,4 F,4 | %25
w: Par- la'in me la pie-|ta- te,|par- la'in lei la bel-|ta- de, e|di- ce quel bel|vol- to'al|
 G,2 _E,2 F,4 | B,,8 |[M:3/2] z12 | z12 | G,4 G,4 G,4 | F,8 F,4 | _E,4 E,4 E,4 | D,8 z4 | %33
w: cru- do co-|re,|||chi puo mi-|rar- mi,|e non lan-|guir,-|
 C,4 C,4 C,4 | B,,8 B,,4 | B,4 B,4 B,4 | F,8 F,4 | G,4 G,4 F,4 | _E,4 D,2 C,2 B,,4 | C,4 D,8 | %40
w: chi puo mi-|rar- mi|chi puo mi-|rar- mi,|e non lan|guir _ _ _|d'a- mo-|
 G,,12 :| %41
w: re?|
V:3
 G,8 | D,4 A,4- | A,2 A,2 D,4 | G,8 | D,4 z2 B,,2 | F,4 F,2 G,2 | D,4 _E,2 C,2 | D,4 z2 B,,2 | %8
 F,4 F,2 G,2 | D,4 _E,2 C,2 | D,4 z4 | A,,8 | D,4 z4 | D,2 C,2 B,,2 G,,2 | A,,4 D,4 | %15
 D,4 D,2 D,G, | F,4 B,,4 | C,4 D,4 | G,,8 :: G,2 F,2 _E,2 E,C, | D,4 z4 | G,2 F,2 _E,2 E,C, | %22
 D,4 z2 B,,2 | B,4 C4 | B,4 F,4 | G,2 _E,2 F,4 | B,,8 |[M:3/2] z12 | z12 | G,12 | F,8 F,4 | _E,12 | %32
 D,8 z4 | C,12 | B,,8 B,,4 | B,12 | F,8 F,4 | G,8 F,4 | _E,4 D,2 C,2 B,,4 | C,4 D,8 | G,,12 :| %41

